img/svg/placeholder-character.svg

<svg xmlns="http://www.w3.org/2000/svg" viewBox="0 0 512 512" style="height: 512px; width: 512px;"><g class="" transform="translate(0,0)" style=""><path d="M254.1 18.63c-81.4 0-231.43 155.97-171.63 300.77 8 25.3 27.83 50.4 49.13 77.1 24.4 30.6 51.6 63.2 68.7 96.9h20.5c-18.1-39.8-48.5-75.9-74.6-108.6-27.4-34.3-48.73-65.2-48.73-87.9.1-9.1 2.23-18.1 5.53-26.3 23-61.4 114-119.7 148.5-135l3.6-2 3.9 1.3c60.9 20.9 129.3 66.7 154 135.7 4.1 11.7 5.9 18 5.6 27.3-.5 15.8-24.5 54.7-55 88.7-29.1 32.4-62.4 67.7-80 106.7h20.5c16.8-32.2 46.2-64 73.3-94.2 23.2-25.6 45.3-50 54.9-74.8 52.9-124-99.2-305.67-178.2-305.67zm.8 135.47c-38.7 21.5-85.1 52.2-113.7 88.2 9.7 83 59 146.1 118.3 146.1 59.2 0 108.3-62.7 118.2-145.3-28.9-42.1-78-72.9-122.8-89zm-58.3 83h2.4c13.1.1 26.1 2.7 39.1 7.4-16.8 40.6-59 42-78.1 0 12.2-4.8 24.4-7.2 36.6-7.4zm124.9 0c13-.1 26 2.3 39.1 7.4-19.2 42-61.3 40.6-78.2 0 13.1-4.7 26.1-7.3 39.1-7.4z" fill="#fff" fill-opacity="1"></path></g></svg>

<svg width="512" height="512" viewBox="0 0 512 512" fill="none" xmlns="http://www.w3.org/2000/svg">
<path d="M254.1 18.6299C172.7 18.6299 22.6701 174.6 82.4701 319.4C90.4701 344.7 110.3 369.8 131.6 396.5C156 427.1 183.2 459.7 200.3 493.4H220.8C202.7 453.6 172.3 417.5 146.2 384.8C118.8 350.5 97.4701 319.6 97.4701 296.9C97.5701 287.8 99.7001 278.8 103 270.6C126 209.2 217 150.9 251.5 135.6L255.1 133.6L259 134.9C319.9 155.8 388.3 201.6 413 270.6C417.1 282.3 418.9 288.6 418.6 297.9C418.1 313.7 394.1 352.6 363.6 386.6C334.5 419 301.2 454.3 283.6 493.3H304.1C320.9 461.1 350.3 429.3 377.4 399.1C400.6 373.5 422.7 349.1 432.3 324.3C485.2 200.3 333.1 18.6299 254.1 18.6299ZM254.9 154.1C216.2 175.6 169.8 206.3 141.2 242.3C150.9 325.3 200.2 388.4 259.5 388.4C318.7 388.4 367.8 325.7 377.7 243.1C348.8 201 299.7 170.2 254.9 154.1ZM196.6 237.1H199C212.1 237.2 225.1 239.8 238.1 244.5C221.3 285.1 179.1 286.5 160 244.5C172.2 239.7 184.4 237.3 196.6 237.1ZM321.5 237.1C334.5 237 347.5 239.4 360.6 244.5C341.4 286.5 299.3 285.1 282.4 244.5C295.5 239.8 308.5 237.2 321.5 237.1Z" fill="#444856"/>
</svg>
